!!!!SEGMENT: pl-wnifc--13846--001-040_anonim--piesni-polskie-i-ruskie-ludu-galicyjskiego-40-a-moj-ty-chlopczyno.krn
!!!cenid: 18xx:3262
!!!COM: Anonim
!!!COM-rismID: pe30004985
!!!CDT:
!!!CNT:
!!!GTL: Pieśni polskie i ruskie ludu galicyjskiego
!!!OTL: 40. A mój ty chłopczyno
!!!OMV: 040
!!!PDT: 1833
!!!AGN:
!!!YEC: Copyright 2022 Narodowy Instytut Fryderyka Chopina (https://polishscores.org)
!!!YEM: License CC-BY-4.0 (https://creativecommons.org/licenses/by/4.0)
!!!SMS-siglum: PL-Wnifc
!!!SMS-shelfmark: 13846
!!!SMS-shelfwork: 001-040 G
!!!NIFC-rismSourceID: 1001036701
!!!NIFC-rismChildID: 1001036924
!!!NIFC-islandoraID: nifc:210326
!!!URL-pdf-islandora: https://repozytorium.nifc.pl/islandora/object/nifc%3A210326/datastream/PDF/view
!!!URL-scan:
!!!IIIF:
!!!ONB-nifc:
!!!AIN: 1 piano 1 soprn
!!!key: A
**kern	**kern	**kern	**text
*group2	*group2	*group1	*
*part2	*part2	*part1	*
*staff3	*staff2	*staff1	*
*I"[Piano]	*I"[Piano]	*I"[Soprano]	*
*Ipiano	*Ipiano	*Isoprn	*
*ICklav	*ICklav	*ICvox	*
*IGacmp	*IGacmp	*IGsolo	*
*clefF4	*clefG2	*clefG2	*
*k[f#c#g#]	*k[f#c#g#]	*k[f#c#g#]	*
*A:	*A:	*A:	*
*M2/4	*M2/4	*M2/4	*
=1-	=1-	=1-	=1-
*^	*	*	*
!	!	!	!LO:TX:a:B:t=Krakowiak.	!
!	!	!	!LO:TX:b:B:rj:t=D.b.b.\n53.	!
8AAL/	4AA\	8cc#\	8cc#/	A
8E/	.	(>16b\LL	(<16b/LL	mój
.	.	16cc#\)	16cc#/JJ)	.
8EE/	4EE\	(>16dd\	(>16dd\LL	ty
.	.	16cc#\JJ)	16cc#\JJ)	.
8EJ/	.	(>16b\LL	(<16b/LL	chło-
.	.	16a\JJ)	16a/JJ)	.
=2	=2	=2	=2	=2
*	*	*^	*	*
8BBL/	4BB\	8.a/L	4d\	(<8.a/L	-pczy-
8E/	.	.	.	.	.
.	.	16g#/Jk	.	16g#/Jk)	.
8EE/	4EE\	8.b/L	4d\	(<8.b/L	-no,
8EJ/	.	.	.	.	.
.	.	16e/Jk	.	16e/Jk)	.
*	*	*v	*v	*	*
!!LO:LB:g=original
=3	=3	=3	=3	=3
!LO:N:vis=2	!	!	!	!
8EEL/	2EE\	8e/	8e/	mo-
8E/	.	8e/	8e/	-je
8B/ 8d/	.	8f#/L	8f#/	ty
8EJ/	.	8g#/J	8g#/	ko-
*v	*v	*	*	*
=4	=4	=4	=4
8A\L 8c#\	4a/	4a/	-cha-
8E\	.	.	.
*	*	*^	*
8c#\ 8e\	(>8.cc#\L	(<8.cc#L/	4cc#\	-nie,
8E\J	.	.	.	.
.	16b\Jk)	16bJk)/	.	.
*	*	*v	*v	*
!!LO:LB:g=original
=5	=5	=5	=5
*^	*	*	*
(<8AAL/	4AA\	8cc#\	8cc#/	niech
8E)/	.	(>16b\LL	(<16b/LL	kon-
.	.	16cc#\JJ)	16cc#/JJ)	.
*v	*v	*	*	*
8EE/	(>16dd\LL	(>16dd\LL	-trakt
.	16cc#\)	16cc#\JJ)	.
8EJ/	(>16b\	(<16b/LL	mi-
.	16a\JJ)	16a/JJ)	.
=6	=6	=6	=6
*^	*^	*	*
8BBL/	4BB\	8.a/L	4d\	(<8.a/	ło-
8E/	.	.	.	.	.
.	.	16g#/Jk	.	16g#/)	.
*v	*v	*	*	*	*
8EE/	8.b/L	4d\	(<8.b/L	-śći
8EJ/	.	.	.	.
.	16e/Jk	.	16e/Jk)	.
*	*v	*v	*	*
!!LO:LB:g=original
=7	=7	=7	=7
*^	*	*	*
!!mixed beam:problem
!LO:TX:t=P:problem=mixed beam	!	!	!	!
8EEL/	4EE\	8e/L	8e/	mię-
8E\ 8B\ 8d\	.	8e/	8e/	-dzy
*v	*v	*	*	*
8E\ 8B\ 8d\	8f#/	8f#/	na-
8EJ\ 8B\ 8d\	8g#/J	8g#/	-mi
=8	=8	=8	=8
*^	*	*	*
8AAL/	4AA\	4a/	4a/	sta-
8EJ/ 8A/ 8c#/	.	.	.	.
4E/	4AA\	4a/	4a/	-nie.
*v	*v	*	*	*
==	==	==	==
*-	*-	*-	*-
!!!RDF**kern: > = above
!!!RDF**kern: < = below
!!!system-decoration: g1,[{g2}]
!!!ENC: Jędrzej Mróz
!!!END: 2021-11-10
